frontend/public/assets/material-icons/folder-content.svg

<svg xmlns="http://www.w3.org/2000/svg" viewBox="0 0 32 32"><path fill="#00bcd4" d="m13.844 7.536-1.288-1.072A2 2 0 0 0 11.276 6H4a2 2 0 0 0-2 2v16a2 2 0 0 0 2 2h24a2 2 0 0 0 2-2V10a2 2 0 0 0-2-2H15.124a2 2 0 0 1-1.28-.464"/><path fill="#b2ebf2" d="M22 18h6v2h-6zm0 4h6v2h-6z"/><path fill="#b2ebf2" d="M10 15v12a1 1 0 0 0 1 1h20a1 1 0 0 0 1-1V15a1 1 0 0 0-1-1H11a1 1 0 0 0-1 1m20 11H20V16h10Z"/></svg>

<svg xmlns="http://www.w3.org/2000/svg" viewBox="0 0 32 32">
  <path d="M13.84376,7.53645l-1.28749-1.0729A2,2,0,0,0,11.27591,6H4A2,2,0,0,0,2,8V24a2,2,0,0,0,2,2H28a2,2,0,0,0,2-2V10a2,2,0,0,0-2-2H15.12412A2,2,0,0,1,13.84376,7.53645Z" style="fill: #00bcd4"/>
  <g>
    <rect x="22" y="18" width="6" height="2" style="fill: #b2ebf2"/>
    <rect x="22" y="22" width="6" height="2" style="fill: #b2ebf2"/>
    <path d="M10,15V27a1,1,0,0,0,1,1H31a1,1,0,0,0,1-1V15a1,1,0,0,0-1-1H11A1,1,0,0,0,10,15ZM30,26H20V16H30Z" style="fill: #b2ebf2;fill-rule: evenodd"/>
  </g>
</svg>
